packages/kaspersky-hexa-ui-icons/src/iconsSVGs/16/Folder.svg

<svg width="16" height="16" viewBox="0 0 16 16" fill="none" xmlns="http://www.w3.org/2000/svg">
<path fill-rule="evenodd" clip-rule="evenodd" d="M3.10062 3.19453C2.68595 3.19453 2.3498 3.53068 2.3498 3.94534V12.0549C2.3498 12.4695 2.68595 12.8057 3.10062 12.8057H12.899C13.3137 12.8057 13.6498 12.4695 13.6498 12.0549V5.34079C13.6498 4.92613 13.3137 4.58998 12.899 4.58998H8.01219C7.8417 4.58998 7.67803 4.52299 7.55647 4.40346L6.59717 3.46022C6.424 3.28995 6.19086 3.19453 5.948 3.19453H3.10062ZM1.0498 3.94534C1.0498 2.81271 1.96798 1.89453 3.10062 1.89453H5.948C6.53185 1.89453 7.09231 2.12392 7.50862 2.53326L8.27822 3.28998H12.899C14.0316 3.28998 14.9498 4.20816 14.9498 5.34079V12.0549C14.9498 13.1875 14.0316 14.1057 12.899 14.1057H3.10062C1.96798 14.1057 1.0498 13.1875 1.0498 12.0549V3.94534Z" fill="black"/>
</svg>

<svg xmlns="http://www.w3.org/2000/svg" width="16" height="16" fill="none" viewBox="0 0 16 16"><path fill="#000" fill-rule="evenodd" d="M3.1006 3.1945a.751.751 0 0 0-.7508.7508v8.1096c0 .4146.3361.7508.7508.7508h9.7984a.751.751 0 0 0 .7508-.7508V5.3408a.751.751 0 0 0-.7508-.7508H8.0122a.65.65 0 0 1-.4557-.1865l-.9593-.9433a.926.926 0 0 0-.6492-.2657zm-2.0508.7508c0-1.1326.9182-2.0508 2.0508-2.0508H5.948a2.226 2.226 0 0 1 1.5606.6388l.7696.7567h4.6208c1.1326 0 2.0508.9182 2.0508 2.0508v6.7141c0 1.1326-.9182 2.0508-2.0508 2.0508H3.1006c-1.1326 0-2.0508-.9182-2.0508-2.0508z"/></svg>
